source/img/logo.svg

<svg width="191" height="38" viewBox="0 0 191 38" fill="none" xmlns="http://www.w3.org/2000/svg">
<g clip-path="url(#clip0)">
<path d="M6.07 20.72V18.46C12.7536 17.5423 19.4937 17.0979 26.24 17.13C26.24 17.73 26.24 18.34 26.18 18.95C28.0976 18.099 30.1128 17.4877 32.18 17.13C30.8625 13.722 28.4618 10.8412 25.3471 8.93086C22.2325 7.02051 18.5764 6.1864 14.9414 6.55683C11.3064 6.92726 7.89379 8.48172 5.22852 10.9811C2.56325 13.4804 0.792971 16.7863 0.190002 20.39L6.07 20.72Z" fill="#FDC305"/>
<path d="M27.24 24.23C26.08 25.51 25.85 25.43 25.85 27.68C25.85 28.59 25.85 32.58 25.85 36.86C28.1425 35.346 30.0245 33.2879 31.328 30.8694C32.6315 28.4509 33.3158 25.7474 33.32 23C33.3068 21.9591 33.1997 20.9216 33 19.9C30.9282 21.1295 28.9968 22.5814 27.24 24.23Z" fill="#FDC305"/>
<path d="M6.36 25.72C6.36 25.72 2.57 24.28 1.17 23.89C0.787067 23.7693 0.396097 23.6757 0 23.61C0.108395 26.496 0.965588 29.3041 2.48739 31.7586C4.00919 34.2131 6.14326 36.2296 8.68 37.61L6.36 25.72Z" fill="#FDC305"/>
<path d="M26.29 17.12C26.3307 11.5986 25.862 6.08529 24.89 0.650004C24.89 0.650004 24.75 -0.639996 24 0.410004C23.4109 1.65814 23.0067 2.98539 22.8 4.35C18.5418 4.07577 14.2675 4.18958 10.03 4.69C9.24 2 7.85 0.750004 7.18 1C6.51 1.25 6.46 4.31 6.46 4.31L6.13 18.41C12.8113 17.506 19.548 17.0749 26.29 17.12Z" fill="#F06351"/>
<path d="M12.41 14C12.41 13.91 13.41 14.68 13.82 14.92C14.23 15.16 14.43 15.34 14.43 15.51C14.43 15.68 14.16 15.85 13.8 15.85C13.44 15.85 12.89 15.73 12.8 15.58H13.74H14.03C13.4207 15.1294 12.8757 14.5978 12.41 14Z" fill="black"/>
<path d="M19.89 14.11L18.8 15.44C18.8 15.5 18.63 15.79 18.98 15.74C19.3942 15.6783 19.8023 15.5812 20.2 15.45C20.31 15.45 20.27 15.26 20.09 15.28C19.91 15.3 19.4 15.33 19.09 15.39L19.93 14.13C19.93 14.13 20 14 19.89 14.11Z" fill="black"/>
<path d="M16.75 20.2C17.2135 19.9958 17.5967 19.6443 17.84 19.2C18.12 18.55 17.84 18.29 17.4 18.2C16.7979 18.0902 16.1765 18.2116 15.66 18.54C15.27 18.9 15.32 19.26 15.61 19.54C15.9613 19.8062 16.3442 20.0279 16.75 20.2Z" fill="black"/>
<path d="M16.35 21.45C16.2379 21.6785 16.0816 21.8825 15.89 22.05C15.6052 22.2791 15.2551 22.4122 14.89 22.43C14.3638 22.472 13.8406 22.3189 13.42 22C13.2222 21.8808 13.0436 21.7324 12.89 21.56C12.7895 21.4491 12.6669 21.3605 12.53 21.3C12.53 21.3 13.28 25.4 15.1 26.05C16.92 26.7 17.24 25.3 17.3 24.92C17.3601 23.7851 17.0742 22.6588 16.48 21.69C16.46 21.38 16.45 21.58 16.35 21.45Z" fill="#F06351"/>
<path d="M14.71 22.59C14.2453 22.5247 13.7989 22.3651 13.3982 22.1209C12.9975 21.8767 12.651 21.5531 12.38 21.17C12.3667 21.157 12.3561 21.1414 12.3489 21.1242C12.3417 21.1071 12.338 21.0886 12.338 21.07C12.338 21.0514 12.3417 21.0329 12.3489 21.0158C12.3561 20.9986 12.3667 20.983 12.38 20.97C12.393 20.9567 12.4086 20.9461 12.4258 20.9389C12.4429 20.9317 12.4614 20.928 12.48 20.928C12.4986 20.928 12.5171 20.9317 12.5342 20.9389C12.5514 20.9461 12.567 20.9567 12.58 20.97C13.0848 21.6642 13.843 22.1313 14.69 22.27C15.0217 22.245 15.3426 22.1413 15.6261 21.9674C15.9096 21.7934 16.1475 21.5544 16.32 21.27L16.46 21.08L16.56 21.29C16.56 21.29 16.93 22.05 17.56 22.09C18.19 22.13 18.61 21.68 19.17 20.81C19.183 20.7967 19.1986 20.7861 19.2158 20.7789C19.2329 20.7717 19.2514 20.768 19.27 20.768C19.2886 20.768 19.3071 20.7717 19.3242 20.7789C19.3414 20.7861 19.357 20.7967 19.37 20.81C19.4023 20.8306 19.4255 20.8629 19.4348 20.9C19.4441 20.9372 19.4388 20.9766 19.42 21.01C18.78 22.01 18.15 22.45 17.54 22.41C17.308 22.3763 17.0867 22.2903 16.8927 22.1587C16.6987 22.0271 16.5371 21.8531 16.42 21.65C16.2233 21.9245 15.9676 22.1514 15.6717 22.3141C15.3758 22.4767 15.0472 22.571 14.71 22.59Z" fill="black"/>
<path d="M26.24 18.92C24.4445 20.5437 22.7512 22.277 21.17 24.11C19.5986 25.9361 17.8238 27.5768 15.88 29C15.66 28.47 14.26 27.49 14.26 27.49C14.26 27.49 11.13 25.35 9.08 23.67C7.97414 22.7373 6.9287 21.7353 5.95 20.67L3.95 20.56C6.84017 24.7655 11.0702 27.8676 15.95 29.36C16.81 29.22 19.22 27.5 21.02 26.1C23.1389 24.2819 25.124 22.3134 26.96 20.21C27.4625 19.621 27.8493 18.9425 28.1 18.21C27 18.6 26.24 18.92 26.24 18.92Z" fill="#F06351"/>
</g>
<g clip-path="url(#clip1)">
<path d="M91.2645 29.346C90.3696 28.0847 89.9253 26.5725 90 25.0418V18.6623C89.8916 17.1151 90.3081 15.5761 91.1855 14.2812C92.0548 13.282 93.3983 12.8209 95.374 12.8209C97.3498 12.8209 98.6143 13.282 99.4045 14.1275C100.263 15.1984 100.685 16.5392 100.59 17.8937V19.4309H96.7175V17.6631C96.7488 17.1403 96.6681 16.6168 96.4804 16.1259C96.3802 15.9277 96.2212 15.7633 96.024 15.6537C95.8269 15.5441 95.6005 15.4944 95.374 15.511C94.8208 15.511 94.4257 15.6647 94.2676 16.049C94.0888 16.5951 94.0086 17.1672 94.0305 17.74V25.9641C93.9888 26.5198 94.0978 27.0763 94.3466 27.5782C94.5047 27.9625 94.8999 28.1162 95.4531 28.1162C96.0063 28.1162 96.3224 27.9625 96.4804 27.5782C96.6601 27.0587 96.7405 26.5117 96.7175 25.9641V24.1194H100.59V25.6567C100.67 27.0332 100.251 28.3935 99.4045 29.4997C98.6143 30.422 97.2707 30.8832 95.374 30.8832C93.4773 30.8063 92.0548 30.3452 91.2645 29.346Z" fill="#111111"/>
<path d="M105.253 13.0527H109.757L113.077 30.577H109.441L108.809 26.8877H106.201L105.569 30.577H101.854L105.253 13.0527ZM108.493 24.5818L107.545 17.7412L106.596 24.5818H108.493Z" fill="#111111"/>
<path d="M115.843 15.9734H113.156V13.0527H122.56V15.8965H119.873V30.577H115.843V15.9734Z" fill="#111111"/>
<path d="M129.752 13.0527H136.707V14.8974H132.202V20.6619H135.837V22.4297H132.202V28.8861H136.707V30.6539H129.673V13.0527H129.752Z" fill="#111111"/>
<path d="M138.761 13.0527H140.5L145.637 24.6587V13.0527H147.692V30.577H146.111L140.895 18.5867V30.577H138.761V13.0527Z" fill="#111111"/>
<path d="M150.063 13.0527H157.017V14.8974H152.513V20.6619H156.148V22.4297H152.513V28.8861H157.017V30.6539H150.063V13.0527Z" fill="#111111"/>
<path d="M159.072 13.0528H162.707C164.137 12.9568 165.559 13.3362 166.738 14.1289C167.607 14.8206 168.002 16.0504 168.002 17.6645C168.002 19.8935 167.291 21.277 165.79 21.7381L168.318 30.5003H165.869L163.498 22.2762H161.522V30.5003H158.993V13.0528H159.072ZM162.549 20.5852C163.364 20.6505 164.176 20.4326 164.841 19.9703C165.315 19.586 165.552 18.8174 165.552 17.6645C165.574 17.0918 165.494 16.5197 165.315 15.9736C165.137 15.5817 164.832 15.2576 164.446 15.0512C163.902 14.81 163.304 14.7043 162.707 14.7438H161.601V20.5084H162.549V20.5852Z" fill="#111111"/>
<path d="M171.164 29.2702C170.342 27.9264 169.956 26.3727 170.057 24.8123V18.9709C170.038 17.857 170.171 16.7456 170.452 15.6658C170.717 14.859 171.244 14.1576 171.954 13.6675C172.836 13.1595 173.854 12.9186 174.878 12.9757C176.538 12.9757 177.723 13.36 178.434 14.2055C179.252 15.3219 179.644 16.6812 179.541 18.0485V18.6634H177.17V18.1254C177.173 17.4817 177.12 16.8388 177.012 16.2039C176.945 15.8026 176.718 15.4434 176.379 15.2047C175.935 14.9211 175.408 14.7862 174.878 14.8204C174.311 14.7851 173.75 14.9487 173.297 15.2815C173.111 15.4339 172.959 15.6215 172.851 15.833C172.742 16.0445 172.679 16.2753 172.665 16.5113C172.561 17.1984 172.508 17.892 172.507 18.5866V25.1197C172.449 26.1151 172.61 27.111 172.981 28.0405C173.297 28.6554 173.93 28.8859 174.878 28.8859C175.252 28.9313 175.632 28.868 175.97 28.7038C176.307 28.5397 176.587 28.2822 176.775 27.9636C177.192 26.9917 177.381 25.9413 177.328 24.8892V23.6594H175.036V21.8916H179.62V30.5769H178.039L177.802 28.5785C177.595 29.2482 177.163 29.8314 176.576 30.2353C175.989 30.6391 175.28 30.8405 174.562 30.8075C173.909 30.8448 173.256 30.7239 172.663 30.4556C172.07 30.1873 171.555 29.78 171.164 29.2702Z" fill="#111111"/>
<path d="M184.678 24.4293L180.805 13.1307H183.176L185.942 21.5854L188.629 13.1307H191L187.128 24.4293V30.5782H184.757V24.4293H184.678Z" fill="#111111"/>
</g>
<defs>
<clipPath id="clip0">
<rect width="33.32" height="37.61" fill="white"/>
</clipPath>
<clipPath id="clip1">
<rect width="101" height="17.9855" fill="white" transform="translate(90 12.8209)"/>
</clipPath>
</defs>
</svg>

<svg width="191" height="38" fill="none" xmlns="http://www.w3.org/2000/svg"><g clip-path="url(#clip0)"><path d="M6 20.7v-2.2c6.8-1 13.5-1.4 20.2-1.4V19c1.9-.8 4-1.4 6-1.8a16.7 16.7 0 00-32 3.3l5.9.3zM27.2 24.2c-1.1 1.3-1.3 1.2-1.3 3.5v9.2a16.6 16.6 0 007.1-17c-2 1.2-4 2.7-5.8 4.3zM6.4 25.7L1.2 24 0 23.6a16.6 16.6 0 008.7 14L6.4 25.7z" fill="#FDC305"/><path d="M26.3 17.1c0-5.5-.4-11-1.4-16.4 0 0-.1-1.3-.9-.3-.6 1.3-1 2.6-1.2 4-4.3-.3-8.5-.2-12.8.3C9.2 2 7.8.7 7.2 1c-.7.3-.7 3.3-.7 3.3L6 18.4c6.7-.9 13.4-1.3 20.2-1.3z" fill="#F06351"/><path d="M12.4 14l1.4 1c.4.2.6.3.6.5s-.2.3-.6.3c-.4 0-1 0-1-.2H14L12.4 14zM19.9 14.1l-1.1 1.3c0 .1-.2.4.2.3l1.2-.3-.1-.1h-1l.8-1.2s.1-.1 0 0zM16.8 20.2c.4-.2.8-.6 1-1 .3-.6 0-1-.4-1-.6-.1-1.2 0-1.7.3-.4.4-.4.8 0 1l1 .7z" fill="#000"/><path d="M16.4 21.4a2 2 0 01-.5.7c-.3.2-.6.3-1 .3-.5 0-1 0-1.5-.4l-.5-.4a1 1 0 00-.4-.3s.8 4.1 2.6 4.8c1.8.6 2.1-.8 2.2-1.2 0-1.1-.2-2.2-.8-3.2l-.1-.3z" fill="#F06351"/><path d="M14.7 22.6a3.4 3.4 0 01-2.4-1.5.1.1 0 010-.1.1.1 0 01.3 0c.5.7 1.2 1.1 2 1.3a2 2 0 001.7-1l.2-.2v.2s.4.8 1 .8c.7 0 1.1-.4 1.7-1.3a.1.1 0 01.2 0 .2.2 0 010 .2c-.6 1-1.3 1.4-1.9 1.4a1.6 1.6 0 01-1-.8 2.3 2.3 0 01-1.8 1z" fill="#000"/><path d="M26.2 19a58.6 58.6 0 00-5 5.1 31.6 31.6 0 01-5.3 4.9c-.2-.5-1.6-1.5-1.6-1.5S11 25.4 9 23.7l-3.1-3-2-.1c2.8 4.2 7 7.3 12 8.8.8-.2 3.2-1.9 5-3.3 2.1-1.8 4.1-3.8 6-5.9.5-.6.8-1.3 1.1-2l-1.9.7z" fill="#F06351"/></g><g clip-path="url(#clip1)" fill="#111"><path d="M91.3 29.3A6.9 6.9 0 0190 25v-6.3a7 7 0 011.2-4.4c.9-1 2.2-1.5 4.2-1.5s3.2.5 4 1.3c.9 1.1 1.3 2.4 1.2 3.8v1.5h-3.9v-1.7c0-.6 0-1-.2-1.6l-.5-.4c-.2-.2-.4-.2-.6-.2-.6 0-1 .2-1.1.5l-.3 1.7V26l.3 1.6c.2.4.6.5 1.2.5.5 0 .8-.1 1-.5.2-.5.2-1 .2-1.6V24h3.9v1.6c0 1.3-.3 2.7-1.2 3.8-.8 1-2.1 1.4-4 1.4-2 0-3.3-.6-4.1-1.6zM105.3 13h4.5l3.3 17.6h-3.7l-.6-3.7h-2.6l-.6 3.7h-3.7l3.4-17.5zm3.2 11.6l-1-6.9-.9 6.9h1.9zM115.8 16h-2.6v-3h9.4V16h-2.7v14.7h-4V16zM129.8 13h7V15h-4.6v5.8h3.6v1.7h-3.6V29h4.5v1.8h-7V13zM138.8 13h1.7l5.1 11.7V13h2v17.5h-1.5l-5.2-12v12h-2.1V13zM150 13h7V15h-4.5v5.8h3.6v1.7h-3.6V29h4.5v1.8h-7V13zM159 13h3.7c1.4 0 2.9.3 4 1.1 1 .7 1.3 2 1.3 3.6 0 2.2-.7 3.6-2.2 4l2.5 8.8H166l-2.4-8.2h-2v8.2H159V13.1zm3.5 7.6c.9 0 1.7-.2 2.3-.6.5-.4.8-1.2.8-2.3 0-.6-.1-1.2-.3-1.7a2 2 0 00-.9-1c-.5-.2-1.1-.3-1.7-.3h-1.1v5.8h1zM171.2 29.3a7.6 7.6 0 01-1.1-4.5V19c0-1.1 0-2.3.4-3.3a4 4 0 011.5-2c.8-.5 1.9-.8 2.9-.7 1.6 0 2.8.4 3.5 1.2a5.8 5.8 0 011.1 3.8v.7h-2.3V18c0-.6 0-1.3-.2-1.9 0-.4-.3-.8-.6-1-.5-.3-1-.4-1.5-.4-.6 0-1.2.1-1.6.5a1.7 1.7 0 00-.6 1.2 14 14 0 00-.2 2v6.6c0 1 .1 2 .5 3 .3.6 1 .8 1.9.8.4 0 .7 0 1-.2.4-.2.7-.4.9-.7.4-1 .6-2 .5-3.1v-1.2H175v-1.8h4.6v8.7H178l-.2-2c-.2.6-.6 1.2-1.2 1.6-.6.4-1.3.6-2 .6a4 4 0 01-3.4-1.5zM184.7 24.4l-3.9-11.3h2.4l2.7 8.5 2.7-8.5h2.4l-3.9 11.3v6.2h-2.3v-6.2h-.1z"/></g><defs><clipPath id="clip0"><path fill="#fff" d="M0 0h33.3v37.6H0z"/></clipPath><clipPath id="clip1"><path fill="#fff" transform="translate(90 12.8)" d="M0 0h101v18H0z"/></clipPath></defs></svg>
